X:1
T:Title
%%score ( 1 2 3 ) { 4 | 5 }
L:1/8
Q:1/4=88
M:4/4
K:Bb
V:1 treble nm="Grand Piano, Soprano"
V:2 treble 
V:3 treble 
V:4 bass nm="Choir Pad, Is It Nothing to Thee?"
V:5 bass 
V:1
 [B,D][B,E] [DF]<[DF] [DF]2 [DB]2- | [DB][FA]/[FA]/ [FA]<[EG] [EG]2 [EG]2 | %2
w: By~William~Howard~Doane * * * * *||
 [EG][EG] [DF]2 [EF][EF] F2 | [FB][GB] [FA]2 [FB][FB] [Fc]2 | [B,D][CE] [DF]<[DF] [DF]2 [FB]2- | %5
w: |||
 [FB][FA]/[FA]/ [FA]<[EG] [EG]2 [GB]2 | [FA][EG] [DF]2 [DF][DF] [CF]2 | %7
w: ||
 [FA][FB] [Fc]2- [Fc][FB] [FB]2 | [Fd]>[FB] [FA]<[EG] [EG]2 [GB]2 | %9
w: ||
 [FA][EG] [EG]<[DF] [DF]2 [DF]2 | [B,D][CE] [DF]2 [EF][EF] F2 | [FB][FB][FA][FA] [FB]2 [Ec]2 | %12
w: |||
 [Fd]>[Ec] [DB]<[DB] [DB]2 [^Fd]2 | [^FA][FA] G<[EG] [EG]2 [EB]2 | %14
w: ||
 [_DA][DG] [=DF]2 [DF][DF] [CF]2 | [FA][FB] [Fc]2- [Fc][FB] [FB]2 | z4 z2 z A | %17
w: |||
 (3[Gc][GB][FA] D2 (3DDD D2 | z2 c6 | (3[=EG][FA][EG] F2 (3DDD _E2 | z2 [B,D]2 z2 [EF]2 | %21
w: ||||
 z2 (3[DB][DB][DB] (3[DB][DB][DB] [^Fd]2- | [Fd]2 G4 [D=F]2- | [DF][DB] [Ec]2- [Ec][DB] [DB]2- | %24
w: |||
 [DB]4 z4 |] %25
w: |
V:2
 x8 | x8 | x8 | x8 | x8 | x8 | x8 | x8 | x8 | x8 | x8 | x8 | x8 | x8 | x8 | x8 | %16
 z2 d2- [Fd-]2 d z/ F/ | z2 F6 | z2 .E2 .E2 E[FA] | x8 | x8 | x8 | x8 | x8 | x8 |] %25
V:3
 x8 | x8 | x8 | x8 | x8 | x8 | x8 | x8 | x8 | x8 | x8 | x8 | x8 | x8 | x8 | x8 | z2 .F2 z2 F2 | %17
 x8 | x8 | x8 | x8 | x8 | x8 | x8 | x8 |] %25
V:4
 F,F, B,<B, B,2 F,2- | F,B,/B,/ B,<B, B,2 B,2 | B,B, B,2 A,A, B,2 | DD C2 DD E2 | %4
 B,B, B,<B, B,2 D2- | DB,/B,/ B,<B, B,2 B,2 | B,B, B,2 B,B, A,2 | CD E2- ED D2 | %8
 B,>B, B,<B, B,2 B,2 | B,B, B,<B, B,2 B,2 | F,F, B,2 A,A, B,2 | DDCC D2[K:bass] A,2 | %12
 A,>A, B,<B, B,2 A,2 | DC B,<B, B,2 G,2 | G,B, B,2 B,B, A,2 | CD E2- ED D2 | %16
 z2[K:bass] .B,2 .B,2 B,>B, | (3EEB, B,2 (3B,B,B, B,2 | z2 .A,2 .A,2 A,>C | %19
 (3B,CB, A,2 (3B,B,B, C2 | z2 B,2 z2 C2 | z2 (3B,B,B, (3B,B,B, A,2- | A,2 B,2 B,2 B,2- | %23
 B,B, A,2- A,F, F,2- | F,4 z4 |] %25
V:5
 B,,B,, B,,<B,, B,,2 B,,2- | B,,D,/D,/ E,<E, E,2 E,2 | E,E, B,,2 C,C, D,2 | B,,B,, F,2 F,F, F,2 | %4
 [B,,F,][B,,F,] [B,,F,]<[B,,F,] [B,,F,]2 B,,2- | B,,D,/D,/ E,<E, E,2 E,2 | E,E, F,2 F,F, F,2 | %7
 F,F, F,2- F,B,, B,,2 | B,,>D, E,<E, E,2 E,2 | E,E, B,,<B,, B,,2 B,,2 | B,,B,, B,,2 C,C, D,2 | %11
 B,,B,,F,F, F,2 F,2 | F,>^F, G,<G, G,2 D,2 | D,D, E,<E, E,2 E,2 | =E,E, F,2 F,F, F,2 | %15
 F,F, F,2- F,B,, B,,2 | z2 .B,,2 .B,,2 B,,>D, | (3E,E,E, B,,2 (3B,,B,,B,, B,,2 | %18
 z2 .F,2 .F,2 F,>F, | (3C,C,C, F,2 (3F,F,F, F,2 | z2 B,,2 z2 A,,2 | z2 (3G,,G,G, (3G,G,G, D,2- | %22
 D,2 E,2 E,2 F,2- | F,F, F,2- F,B,, B,,2- | B,,4 z4 |] %25

